icons/linear-ele-office-data-pie-chart.svg

<svg xmlns="http://www.w3.org/2000/svg" width="32px" height="32px" viewBox="0 0 32 32" version="1.1">
    <title>linear-ele-office-data-pie-chart</title>
    <g id="linear-ele-office-data-pie-chart" stroke-width="1" fill-rule="evenodd">
        <path d="M13.0003278,2.32210797 L13.0000718,4.37803399 C7.82435371,5.71013741 4,10.4084559 4,16 C4,22.627417 9.372583,28 16,28 C21.5915441,28 26.2898626,24.1756463 27.621966,18.9999282 L29.677892,18.9996722 C28.3046747,25.2902004 22.7023537,30 16,30 C8.2680135,30 2,23.7319865 2,16 C2,9.29764634 6.70979962,3.69532531 13.0003278,2.32210797 Z M16,2 C23.7319865,2 30,8.2680135 30,16 C30,16.5522847 29.5522847,17 29,17 L16,17 C15.4477153,17 15,16.5522847 15,16 L15,3 C15,2.44771525 15.4477153,2 16,2 Z M17,4.041 L17,15 L27.958,15 L27.939922,14.7916926 C27.3737391,9.12906525 22.8709347,4.62626089 17.2083074,4.06007801 L17,4.041 Z" id="&#24418;&#29366;" fill-rule="nonzero" />
    </g>
</svg>

<svg xmlns="http://www.w3.org/2000/svg" viewBox="0 0 32 32"><path fill="currentColor" d="M13 2.322v2.056C7.824 5.71 4 10.408 4 16c0 6.627 5.373 12 12 12 5.592 0 10.29-3.824 11.622-9h2.056C28.305 25.29 22.702 30 16 30 8.268 30 2 23.732 2 16 2 9.298 6.71 3.695 13 2.322M16 2c7.732 0 14 6.268 14 14a1 1 0 0 1-1 1H16a1 1 0 0 1-1-1V3a1 1 0 0 1 1-1m1 2.041V15h10.958l-.018-.208C27.374 9.129 22.87 4.626 17.208 4.06z"/></svg>
